assets/images/header/logo-header.svg

<svg width="78" height="48" viewBox="0 0 78 48" fill="none" xmlns="http://www.w3.org/2000/svg">
<path fill-rule="evenodd" clip-rule="evenodd" d="M77.7143 24C77.7143 10.7454 60.3174 0 38.8571 0C17.3969 0 0 10.7451 0 24C0 37.2546 17.3969 48 38.8571 48C60.3174 48 77.7143 37.2549 77.7143 24Z" fill="#5F37B6"/>
<path fill-rule="evenodd" clip-rule="evenodd" d="M77.1793 24C77.1793 17.5698 72.9276 11.7284 66.0533 7.48281C59.103 3.18997 49.4884 0.53494 38.8571 0.53494C28.2259 0.53494 18.6113 3.19028 11.661 7.48281C4.78671 11.7287 0.534985 17.5698 0.534985 24C0.534985 30.4302 4.78671 36.2716 11.661 40.5172C18.6113 44.81 28.2259 47.4651 38.8571 47.4651C49.4884 47.4651 59.103 44.8097 66.0533 40.5172C72.9276 36.2713 77.1793 30.4302 77.1793 24ZM77.7143 24C77.7143 10.7454 60.3174 0 38.8571 0C17.3969 0 0 10.7451 0 24C0 37.2546 17.3969 48 38.8571 48C60.3174 48 77.7143 37.2549 77.7143 24Z" fill="#5F37B6"/>
<path fill-rule="evenodd" clip-rule="evenodd" d="M11.0508 34.7032C14.2568 34.7032 15.8578 32.8109 16.496 30.9831L25.2193 30.9828C25.2193 28.5262 22.3267 27.0615 19.9978 27.0615H18.1243L22.4702 16.596L28.4222 30.9292C29.2551 33.39 31.5056 34.8085 33.8898 34.7035L24.4206 11.8998C21.7102 11.4547 20.2034 12.9346 18.7767 16.0983L11.0508 34.7038V34.7032Z" fill="#F9F9F9"/>
<path fill-rule="evenodd" clip-rule="evenodd" d="M36.5742 34.7001V17.8979C36.5742 13.9809 38.8018 11.8965 40.8788 11.8965V29.4506C40.8788 33.1703 38.5977 34.7001 36.5742 34.7001Z" fill="#F9F9F9"/>
<path fill-rule="evenodd" clip-rule="evenodd" d="M55.1616 34.6849L53.4452 30.5518C50.3743 29.5963 48.1444 26.7334 48.1444 23.3498C48.1444 22.0881 48.4544 20.8987 49.0025 19.8536C49.5474 18.8146 50.328 17.9181 51.2729 17.2349C51.7431 16.8948 52.2544 16.6079 52.7976 16.3822C53.3529 16.1517 53.9415 15.9856 54.5546 15.893C54.9251 15.837 55.3048 15.808 55.6911 15.808C59.859 15.808 63.2375 19.1843 63.2375 23.3495C63.2375 25.8381 62.0313 28.0453 60.1714 29.4187L56.7227 21.1135C54.4289 22.2303 54.0613 24.3361 55.94 28.4735L60.7882 40.1502C63.421 39.0757 63.289 36.9263 62.107 34.0803L61.6601 33.0041C64.8925 31.0041 67.0457 27.4281 67.0457 23.3495C67.0457 17.0824 61.962 12.002 55.6908 12.002C54.7871 12.002 53.9081 12.1075 53.0653 12.3069C52.4697 12.4479 51.8926 12.6355 51.3374 12.8661C50.7981 13.09 50.2798 13.3541 49.7863 13.6552C48.8565 14.2219 48.0145 14.9187 47.2858 15.7199C45.4531 17.735 44.3359 20.4121 44.3359 23.3498C44.3359 29.4393 49.136 34.4086 55.1613 34.6852L55.1616 34.6849Z" fill="#F9F9F9"/>
</svg>

<svg width="78" height="48" fill="none" xmlns="http://www.w3.org/2000/svg"><path fill-rule="evenodd" clip-rule="evenodd" d="M77.714 24c0-13.255-17.397-24-38.857-24S0 10.745 0 24s17.397 24 38.857 24 38.857-10.745 38.857-24Z" fill="#5F37B6"/><path fill-rule="evenodd" clip-rule="evenodd" d="M77.18 24c0-6.43-4.252-12.272-11.127-16.517C59.103 3.19 49.488.535 38.857.535S18.611 3.19 11.661 7.483C4.787 11.729.535 17.57.535 24s4.252 12.272 11.126 16.517c6.95 4.293 16.565 6.948 27.196 6.948s20.246-2.655 27.196-6.948C72.928 36.271 77.18 30.43 77.18 24Zm.534 0c0-13.255-17.397-24-38.857-24S0 10.745 0 24s17.397 24 38.857 24 38.857-10.745 38.857-24Z" fill="#5F37B6"/><path fill-rule="evenodd" clip-rule="evenodd" d="M11.05 34.703c3.207 0 4.808-1.892 5.446-3.72h8.723c0-2.457-2.892-3.922-5.221-3.922h-1.874l4.346-10.465 5.952 14.333c.833 2.461 3.084 3.88 5.468 3.774L24.42 11.9c-2.71-.445-4.217 1.035-5.643 4.198L11.05 34.704ZM36.574 34.7V17.898c0-3.917 2.228-6.002 4.305-6.002v17.555c0 3.72-2.281 5.25-4.305 5.25ZM55.162 34.685l-1.717-4.133a7.546 7.546 0 0 1-4.443-10.698 7.58 7.58 0 0 1 3.796-3.472 7.502 7.502 0 0 1 2.893-.574 7.544 7.544 0 0 1 7.546 7.541 7.53 7.53 0 0 1-3.066 6.07l-3.448-8.306c-2.294 1.117-2.662 3.223-.783 7.36l4.848 11.677c2.633-1.074 2.501-3.224 1.319-6.07l-.447-1.076c3.233-2 5.386-5.576 5.386-9.654 0-6.268-5.084-11.348-11.355-11.348a11.392 11.392 0 0 0-4.354.864 11.406 11.406 0 0 0-4.052 2.854 11.302 11.302 0 0 0-2.95 7.63c0 6.09 4.801 11.059 10.826 11.335Z" fill="#F9F9F9"/></svg>
